toolkits/global/packages/global-context/img/icons/update.svg

<svg height="24" viewBox="0 0 24 24" width="24" xmlns="http://www.w3.org/2000/svg"><path d="m4 16v1c0 .5522847.44771525 1 1 1h14c.5522847 0 1-.4477153 1-1v-1h-1v-10h-14v10zm16-1h1v2c0 1.1045695-.8954305 2-2 2h-14c-1.1045695 0-2-.8954305-2-2v-2h1v-9c0-.55228475.44771525-1 1-1h14c.5522847 0 1 .44771525 1 1zm-1 0v1h-4.5857864l-1 1h-2.8284272l-.99999996-1h-4.58578644v-1h5l1 1h2l1-1zm-13-8h12v7h-12zm1 1v5h10v-5zm1 1h4v1h-4zm0 2h4v1h-4z" fill="#666" fill-rule="evenodd"/></svg>

<?xml version="1.0" encoding="UTF-8"?>
<svg width="24px" height="24px" viewBox="0 0 24 24" version="1.1" xmlns="http://www.w3.org/2000/svg" xmlns:xlink="http://www.w3.org/1999/xlink">
    <!-- Generator: Sketch 63.1 (92452) - https://sketch.com -->
    <title>icon-icon / update</title>
    <desc>Created with Sketch.</desc>
    <g id="icon-/-update" stroke="none" stroke-width="1" fill="none" fill-rule="evenodd">
        <path d="M4,16 L4,17 C4,17.5522847 4.44771525,18 5,18 L19,18 C19.5522847,18 20,17.5522847 20,17 L20,16 L19,16 L19,6 L5,6 L5,16 L4,16 Z M20,15 L21,15 L21,17 C21,18.1045695 20.1045695,19 19,19 L5,19 C3.8954305,19 3,18.1045695 3,17 L3,15 L4,15 L4,6 C4,5.44771525 4.44771525,5 5,5 L19,5 C19.5522847,5 20,5.44771525 20,6 L20,15 Z M19,15 L19,16 L14.4142136,16 L13.4142136,17 L10.5857864,17 L9.58578644,16 L5,16 L5,15 L10,15 L11,16 L13,16 L14,15 L19,15 Z M6,7 L18,7 L18,14 L6,14 L6,7 Z M7,8 L7,13 L17,13 L17,8 L7,8 Z M8,9 L12,9 L12,10 L8,10 L8,9 Z M8,11 L12,11 L12,12 L8,12 L8,11 Z" id="update" fill="#666666"></path>
    </g>
</svg>
